svg/tablet.svg

<svg xmlns="http://www.w3.org/2000/svg" viewBox="0 0 24 24"><path d="M19 18H5V6h14m2-2H3c-1.11 0-2 .89-2 2v12a2 2 0 0 0 2 2h18a2 2 0 0 0 2-2V6a2 2 0 0 0-2-2"/></svg>

<?xml version="1.0" encoding="UTF-8"?><!DOCTYPE svg PUBLIC "-//W3C//DTD SVG 1.1//EN" "http://www.w3.org/Graphics/SVG/1.1/DTD/svg11.dtd"><svg xmlns="http://www.w3.org/2000/svg" xmlns:xlink="http://www.w3.org/1999/xlink" version="1.1" id="mdi-tablet" width="24" height="24" viewBox="0 0 24 24"><path d="M19,18H5V6H19M21,4H3C1.89,4 1,4.89 1,6V18A2,2 0 0,0 3,20H21A2,2 0 0,0 23,18V6C23,4.89 22.1,4 21,4Z" /></svg>
